dist/img/header/Vector234.svg

<svg width="45" height="45" viewBox="0 0 45 45" fill="none" xmlns="http://www.w3.org/2000/svg">
<path d="M38.0455 6.39458C29.2178 -2.13153 15.2224 -2.13153 6.39461 6.39458C-2.34557 15.444 -2.0949 29.8652 6.9545 38.6054C15.7822 47.1315 29.7776 47.1315 38.6054 38.6054C47.3456 29.5561 47.0949 15.1348 38.0455 6.39458ZM37.5347 37.5348L37.5272 37.5272C29.2203 45.8265 15.7585 45.8203 7.45922 37.5135C-0.840051 29.2066 -0.83391 15.7449 7.47292 7.44557C15.7798 -0.853713 29.2416 -0.847574 37.5409 7.45919C41.5273 11.4492 43.7649 16.8597 43.7613 22.5C43.7617 28.139 41.5219 33.5472 37.5347 37.5348Z" fill="#F3F3F3"/>
<path d="M35.2947 28.9847L31.0273 24.7324C30.0588 23.7616 28.4866 23.7598 27.5158 24.7283C27.5143 24.7297 27.513 24.731 27.5116 24.7324L25.0666 27.1775C24.8816 27.3629 24.5901 27.3885 24.3756 27.2382C23.0374 26.303 21.7847 25.251 20.6322 24.0946C19.5999 23.0647 18.6504 21.9552 17.7922 20.7763C17.6367 20.5645 17.6593 20.2709 17.8454 20.0853L20.3511 17.5795C21.3186 16.6102 21.3186 15.0407 20.3511 14.0714L16.0837 9.80402C15.1004 8.8639 13.5514 8.8639 12.5681 9.80402L11.2165 11.1556C9.17529 13.1738 8.4466 16.1707 9.33332 18.9008C9.99501 20.8982 10.9303 22.7943 12.1125 24.535C13.1767 26.1308 14.3977 27.6163 15.7573 28.9695C17.2354 30.4582 18.8727 31.7797 20.6397 32.9104C22.5822 34.178 24.7151 35.1265 26.9573 35.7199C27.5337 35.862 28.1253 35.9334 28.7189 35.9325C30.7541 35.9201 32.7011 35.1009 34.133 33.6545L35.2948 32.4927C36.2621 31.5235 36.2621 29.954 35.2947 28.9847ZM34.2194 31.4572L34.2164 31.4602L34.2239 31.4374L33.0621 32.5992C31.5694 34.1107 29.3955 34.7327 27.3292 34.2393C25.2474 33.6821 23.2684 32.7951 21.4672 31.6121C19.7937 30.5426 18.2429 29.2923 16.8429 27.8837C15.5546 26.6049 14.3973 25.2008 13.3879 23.6922C12.2838 22.069 11.4099 20.3007 10.791 18.4376C10.0815 16.249 10.6694 13.8474 12.3097 12.2339L13.6612 10.8823C14.037 10.5049 14.6476 10.5035 15.025 10.8793L15.028 10.8823L19.2954 15.1497C19.6729 15.5255 19.6742 16.1361 19.2985 16.5135L19.2954 16.5165L16.7896 19.0223C16.0707 19.7335 15.9802 20.8636 16.5771 21.68C17.4834 22.9238 18.4863 24.0942 19.5764 25.1806C20.7919 26.4013 22.1132 27.5117 23.5249 28.4989C24.3406 29.0678 25.4465 28.9719 26.1522 28.2711L28.5744 25.8108C28.9502 25.4334 29.5608 25.432 29.9382 25.8078L29.9412 25.8108L34.2163 30.0935C34.5938 30.4692 34.5952 31.0797 34.2194 31.4572Z" fill="#F3F3F3"/>
</svg>

<svg width="45" height="45" fill="none" xmlns="http://www.w3.org/2000/svg"><path d="M38.045 6.395c-8.827-8.527-22.823-8.527-31.65 0-8.74 9.049-8.49 23.47.56 32.21 8.827 8.527 22.823 8.527 31.65 0 8.74-9.049 8.49-23.47-.56-32.21Zm-.51 31.14-.008-.008c-8.307 8.3-21.769 8.293-30.068-.014-8.3-8.306-8.293-21.768.014-30.067 8.307-8.3 21.769-8.294 30.068.013A21.261 21.261 0 0 1 43.76 22.5c0 5.639-2.24 11.047-6.226 15.035Z" fill="#F3F3F3"/><path d="m35.295 28.985-4.268-4.253a2.483 2.483 0 0 0-3.511-.004l-.004.004-2.445 2.445a.54.54 0 0 1-.691.061 27.633 27.633 0 0 1-3.744-3.143 27.792 27.792 0 0 1-2.84-3.319.532.532 0 0 1 .053-.69l2.506-2.506a2.483 2.483 0 0 0 0-3.509l-4.267-4.267a2.544 2.544 0 0 0-3.516 0l-1.351 1.352A7.593 7.593 0 0 0 9.332 18.9a22.777 22.777 0 0 0 2.78 5.634 28.804 28.804 0 0 0 3.644 4.434 28.612 28.612 0 0 0 4.883 3.941 21.736 21.736 0 0 0 6.317 2.81 7.313 7.313 0 0 0 1.762.212 7.684 7.684 0 0 0 5.414-2.278l1.162-1.161a2.483 2.483 0 0 0 0-3.508Zm-1.076 2.472-.003.003.008-.023-1.162 1.162a6.074 6.074 0 0 1-5.733 1.64 20.185 20.185 0 0 1-5.862-2.627 27.08 27.08 0 0 1-4.624-3.728 27.284 27.284 0 0 1-3.455-4.192 21.258 21.258 0 0 1-2.597-5.254 6.074 6.074 0 0 1 1.519-6.204l1.351-1.352a.964.964 0 0 1 1.364-.003l.003.003 4.267 4.268a.964.964 0 0 1 .003 1.364l-.003.003-2.505 2.505a2.043 2.043 0 0 0-.213 2.658 29.317 29.317 0 0 0 3 3.5 29.131 29.131 0 0 0 3.948 3.319 2.058 2.058 0 0 0 2.627-.228l2.422-2.46a.964.964 0 0 1 1.364-.003l.003.003 4.275 4.282a.964.964 0 0 1 .003 1.364Z" fill="#F3F3F3"/></svg>
